assets/playimg.svg

<svg width="37" height="42" viewBox="0 0 37 42" fill="none" xmlns="http://www.w3.org/2000/svg">
<path d="M2.009 0.247089C1.56846 0.32616 0.992364 0.834476 0.75515 1.3428C0.551823 1.79463 0.540527 2.49498 0.540527 20.8283V39.8619L0.777742 40.3589C0.913293 40.63 1.1844 40.9463 1.37643 41.0706C2.08807 41.4998 2.67546 41.3304 4.81039 40.0652C5.45425 39.6812 5.99646 39.3649 6.01905 39.3649C6.04164 39.3649 6.45959 39.1277 6.94532 38.8453C7.43104 38.5516 8.94469 37.6705 10.3115 36.8798C11.6783 36.1004 13.6664 34.9482 14.7169 34.3382C15.7787 33.7282 17.2698 32.8697 18.0492 32.4179C22.0819 30.0909 23.234 29.4245 23.6407 29.1986C23.8892 29.063 24.5557 28.6789 25.1092 28.3514C26.6002 27.4816 30.6329 25.1659 31.5817 24.6237C36.518 21.8336 36.6875 21.6981 36.6875 20.6136C36.6875 19.7326 36.4616 19.5179 34.2024 18.2415C33.1744 17.6654 32.203 17.1006 32.0336 16.9877C31.8641 16.8634 31.6947 16.773 31.6721 16.773C31.6382 16.773 31.288 16.581 30.904 16.3438C30.1246 15.8694 27.7863 14.5138 23.7537 12.1982C20.7941 10.4925 18.8738 9.39679 16.705 8.13165C15.8691 7.65722 14.9993 7.1602 14.7847 7.03594C14.5588 6.91169 13.5647 6.33559 12.5707 5.7595C11.5766 5.18341 9.54338 4.01993 8.05232 3.16144C6.56125 2.30295 4.99112 1.38798 4.55058 1.12817C3.22896 0.348751 2.63027 0.134129 2.009 0.247089ZM7.57789 7.73629C10.3002 10.436 14.3329 14.4235 16.5356 16.6036C18.7383 18.7724 20.5343 20.6136 20.5343 20.6814C20.5343 20.7492 19.224 22.0934 17.6313 23.6635C16.0272 25.2337 12.1527 29.063 9.01247 32.1807C5.86091 35.2984 3.05952 38.0659 2.76582 38.3483L2.23492 38.8453V20.6814C2.23492 3.45513 2.24621 2.51757 2.42695 2.66442C2.53991 2.75479 4.85557 5.03656 7.57789 7.73629ZM7.95065 5.00267C8.56063 5.36414 9.80319 6.08709 10.7069 6.6067C11.6105 7.12631 12.9322 7.89443 13.6438 8.30109C14.3554 8.71904 15.6771 9.47586 16.5807 9.99548C17.4844 10.5151 18.6253 11.1703 19.1223 11.4639C19.6193 11.7576 21.3363 12.7404 22.9403 13.6667C24.5331 14.5816 25.8434 15.361 25.8434 15.4062C25.8434 15.4401 24.9397 16.3777 23.844 17.4734L21.8333 19.4841L14.2086 11.9158C10.0178 7.75888 6.64033 4.35881 6.7081 4.34751C6.76458 4.34751 7.32938 4.6412 7.95065 5.00267ZM28.5883 16.9312C30.2036 17.8687 32.4515 19.1678 33.728 19.8794C34.3718 20.2409 34.914 20.5798 34.9366 20.6249C34.9705 20.6588 34.3153 21.0994 33.4907 21.5738C32.6774 22.0595 31.5478 22.7147 30.983 23.0423C30.4295 23.3699 29.7179 23.7765 29.4016 23.9459C29.0966 24.1154 28.5544 24.4317 28.2042 24.635C27.8541 24.8496 27.5265 25.0191 27.4813 25.0191C27.4361 25.0191 26.4082 24.0476 25.2108 22.8502L23.0194 20.6814L25.1882 18.5013C26.3856 17.3039 27.4135 16.3212 27.4587 16.3212C27.5152 16.3212 28.0235 16.5923 28.5883 16.9312ZM23.844 23.8443C24.951 24.9287 25.8434 25.8663 25.8434 25.9114C25.8434 26.0018 24.8494 26.6118 23.2453 27.5042C22.8387 27.7301 21.6526 28.4191 20.5908 29.0291C19.5403 29.6391 17.1455 31.0059 15.2817 32.079C13.4179 33.1521 11.6218 34.1801 11.2942 34.3834C10.9667 34.5754 10.673 34.7336 10.6504 34.7336C10.6278 34.7336 10.1308 35.016 9.55468 35.3661C8.18787 36.202 6.73069 37.004 6.68551 36.9589C6.64033 36.9137 21.743 21.8562 21.8333 21.8562C21.8446 21.8562 22.7483 22.7486 23.844 23.8443Z" fill="#E6EDFB"/>
</svg>

<svg width="37" height="42" fill="none" xmlns="http://www.w3.org/2000/svg"><path d="M2.009.247C1.569.327.992.834.755 1.343.552 1.795.541 2.495.541 20.828v19.034l.237.497c.135.271.406.587.598.712.712.429 1.3.26 3.434-1.006.644-.384 1.186-.7 1.21-.7.022 0 .44-.237.925-.52.486-.293 2-1.175 3.367-1.965a758.78 758.78 0 0 0 4.405-2.542c1.062-.61 2.553-1.468 3.332-1.92 4.033-2.327 5.185-2.994 5.592-3.22.248-.135.915-.52 1.468-.847 1.491-.87 5.524-3.185 6.473-3.727 4.936-2.79 5.105-2.926 5.105-4.01 0-.881-.225-1.096-2.485-2.373-1.028-.576-1.999-1.14-2.168-1.253-.17-.125-.34-.215-.362-.215-.034 0-.384-.192-.768-.43-.78-.474-3.118-1.83-7.15-4.145-2.96-1.706-4.88-2.801-7.049-4.066-.836-.475-1.706-.972-1.92-1.096-.226-.124-1.22-.7-2.214-1.276-.994-.577-3.028-1.74-4.519-2.599a530.977 530.977 0 0 1-3.501-2.033C3.229.348 2.63.134 2.009.248zm5.569 7.49c2.722 2.699 6.755 6.687 8.958 8.867 2.202 2.168 3.998 4.01 3.998 4.077 0 .068-1.31 1.412-2.903 2.982-1.604 1.57-5.478 5.4-8.619 8.518a2339.265 2339.265 0 0 1-6.246 6.167l-.531.497V20.681c0-17.226.011-18.163.192-18.017.113.09 2.429 2.373 5.15 5.072zm.373-2.734c.61.361 1.852 1.084 2.756 1.604.903.52 2.225 1.287 2.937 1.694.711.418 2.033 1.175 2.937 1.694.903.52 2.044 1.175 2.541 1.469.497.294 2.214 1.276 3.818 2.203 1.593.915 2.903 1.694 2.903 1.74 0 .033-.903.97-1.999 2.066l-2.01 2.011-7.625-7.568c-4.191-4.157-7.569-7.557-7.5-7.568.056 0 .62.293 1.242.655zM28.588 16.93c1.616.938 3.864 2.237 5.14 2.948.644.362 1.186.7 1.209.746.034.034-.622.474-1.446.949-.814.485-1.943 1.14-2.508 1.468-.553.328-1.265.734-1.581.904-.305.17-.848.486-1.198.689-.35.215-.678.384-.723.384-.045 0-1.073-.971-2.27-2.169l-2.192-2.169 2.17-2.18c1.197-1.197 2.224-2.18 2.27-2.18.056 0 .564.271 1.13.61zm-4.744 6.913c1.107 1.085 2 2.022 2 2.067 0 .09-.995.7-2.599 1.593-.406.226-1.592.915-2.654 1.525-1.05.61-3.446 1.977-5.31 3.05-1.863 1.073-3.66 2.101-3.987 2.304-.327.192-.621.35-.644.35-.022 0-.52.283-1.095.633-1.367.836-2.824 1.638-2.87 1.593-.045-.045 15.058-15.103 15.148-15.103.012 0 .915.893 2.011 1.988z" fill="#E6EDFB"/></svg>
